;FLAVOR:Marlin
;TIME:34946
;Filament used: 38.3774m
;Layer height: 0.2
;MINX:3.2
;MINY:34.2
;MINZ:0.2
;MAXX:231.8
;MAXY:200.8
;MAXZ:14
;Generated with Cura_SteamEngine 4.13.1
M140 S60
M105
M190 S60
M104 S205
M105
M109 S205
M82 ;absolute extrusion mode
; Ender 3 Custom Start G-code
G92 E0 ; Reset Extruder
G28 ; Home all axes
G1 Z2.0 F3000 ; Move Z Axis up little to prevent scratching of Heat Bed
G1 X0.1 Y20 Z0.3 F5000.0 ; Move to start position
G1 X0.1 Y200.0 Z0.3 F1500.0 E15 ; Draw the first line
G1 X0.4 Y200.0 Z0.3 F5000.0 ; Move to side a little
G1 X0.4 Y20 Z0.3 F1500.0 E30 ; Draw the second line
G92 E0 ; Reset Extruder
G1 Z2.0 F3000 ; Move Z Axis up little to prevent scratching of Heat Bed
G1 X5 Y20 Z0.3 F5000.0 ; Move over to prevent blob squish
G92 E0
G92 E0
G1 F2700 E-5
;LAYER_COUNT:70
;LAYER:0
M107
G0 F6000 X8.969 Y34.502 Z0.2
;TYPE:SKIRT
G1 F2700 E0
G1 F1200 X9.738 Y34.323 E0.02626
G1 X10.522 Y34.223 E0.05255
G1 X11.117 Y34.2 E0.07235
G1 X223.883 Y34.2 E7.14898
G1 X224.672 Y34.24 E7.17525
G1 X225.452 Y34.359 E7.2015
G1 X226.217 Y34.557 E7.22778
G1 X226.957 Y34.831 E7.25403
G1 X227.666 Y35.179 E7.28029
G1 X228.337 Y35.597 E7.30659
G1 X228.961 Y36.08 E7.33283
G1 X229.398 Y36.485 E7.35265
G1 X229.515 Y36.602 E7.35815
G1 X230.045 Y37.188 E7.38443
G1 X230.512 Y37.824 E7.41068
G1 X230.913 Y38.504 E7.43693
G1 X231.243 Y39.222 E7.46322
G1 X231.498 Y39.969 E7.48947
G1 X231.677 Y40.738 E7.51573
G1 X231.777 Y41.522 E7.54202
G1 X231.8 Y42.117 E7.56182
G1 X231.8 Y192.883 E12.57632
G1 X231.76 Y193.672 E12.60259
G1 X231.641 Y194.452 E12.62884
G1 X231.443 Y195.217 E12.65512
G1 X231.169 Y195.957 E12.68137
G1 X230.821 Y196.666 E12.70763
G1 X230.403 Y197.337 E12.73393
G1 X229.92 Y197.961 E12.76017
G1 X229.515 Y198.398 E12.77999
G1 X229.398 Y198.515 E12.78549
G1 X228.812 Y199.045 E12.81177
G1 X228.176 Y199.512 E12.83802
G1 X227.496 Y199.913 E12.86427
G1 X226.778 Y200.243 E12.89056
G1 X226.031 Y200.498 E12.91681
G1 X225.262 Y200.677 E12.94307
G1 X224.478 Y200.777 E12.96936
G1 X223.883 Y200.8 E12.98916
G1 X11.117 Y200.8 E20.06579
G1 X10.328 Y200.76 E20.09206
G1 X9.548 Y200.641 E20.11831
G1 X8.783 Y200.443 E20.14459
G1 X8.043 Y200.169 E20.17083
G1 X7.334 Y199.821 E20.1971
G1 X6.663 Y199.403 E20.2234
G1 X6.039 Y198.92 E20.24964
G1 X5.602 Y198.515 E20.26946
G1 X5.485 Y198.398 E20.27496
G1 X4.955 Y197.812 E20.30124
G1 X4.488 Y197.176 E20.32749
G1 X4.087 Y196.496 E20.35374
G1 X3.757 Y195.778 E20.38002
G1 X3.502 Y195.031 E20.40628
G1 X3.323 Y194.262 E20.43254
G1 X3.223 Y193.478 E20.45883
G1 X3.2 Y192.883 E20.47863
G1 X3.2 Y42.117 E25.49313
G1 X3.24 Y41.328 E25.5194
G1 X3.359 Y40.548 E25.54565
G1 X3.557 Y39.783 E25.57193
G1 X3.831 Y39.043 E25.59817
G1 X4.179 Y38.334 E25.62444
G1 X4.597 Y37.663 E25.65074
G1 X5.08 Y37.039 E25.67698
G1 X5.485 Y36.602 E25.6968
G1 X5.602 Y36.485 E25.7023
G1 X6.188 Y35.955 E25.72858
G1 X6.824 Y35.488 E25.75483
G1 X7.504 Y35.087 E25.78108
G1 X8.222 Y34.757 E25.80736
G1 X8.969 Y34.502 E25.83362
G0 F6000 X9.176 Y34.859
G1 F1200 X9.927 Y34.696 E25.85918
G1 X10.692 Y34.612 E25.88477
G1 X11.117 Y34.6 E25.89892
G1 X223.883 Y34.6 E32.97554
G1 X224.651 Y34.64 E33.00112
G1 X225.411 Y34.759 E33.02671
G1 X226.154 Y34.957 E33.05228
G1 X226.873 Y35.231 E33.07787
G1 X227.559 Y35.578 E33.10344
G1 X228.206 Y35.994 E33.12903
G1 X228.806 Y36.475 E33.1546
G1 X229.116 Y36.767 E33.16877
G1 X229.233 Y36.884 E33.17427
G1 X229.747 Y37.456 E33.19985
G1 X230.2 Y38.078 E33.22544
G1 X230.586 Y38.743 E33.25101
G1 X230.901 Y39.445 E33.27661
G1 X231.141 Y40.176 E33.3022
G1 X231.304 Y40.927 E33.32776
G1 X231.388 Y41.692 E33.35335
G1 X231.4 Y42.117 E33.36749
G1 X231.4 Y192.883 E38.38199
G1 X231.36 Y193.651 E38.40757
G1 X231.241 Y194.411 E38.43316
G1 X231.043 Y195.154 E38.45873
G1 X230.769 Y195.873 E38.48432
G1 X230.422 Y196.559 E38.50989
G1 X230.006 Y197.206 E38.53547
G1 X229.525 Y197.806 E38.56105
G1 X229.233 Y198.116 E38.57522
G1 X229.116 Y198.233 E38.58072
G1 X228.544 Y198.747 E38.6063
G1 X227.922 Y199.2 E38.63189
G1 X227.257 Y199.586 E38.65746
G1 X226.555 Y199.901 E38.68306
G1 X225.824 Y200.141 E38.70865
G1 X225.073 Y200.304 E38.73421
G1 X224.308 Y200.388 E38.7598
G1 X223.883 Y200.4 E38.77394
G1 X11.117 Y200.4 E45.85057
G1 X10.349 Y200.36 E45.87615
G1 X9.589 Y200.241 E45.90173
G1 X8.846 Y200.043 E45.92731
G1 X8.127 Y199.769 E45.9529
G1 X7.441 Y199.422 E45.97847
G1 X6.794 Y199.006 E46.00405
G1 X6.194 Y198.525 E46.02963
G1 X5.884 Y198.233 E46.04379
G1 X5.767 Y198.116 E46.0493
G1 X5.253 Y197.544 E46.07488
G1 X4.8 Y196.922 E46.10047
G1 X4.414 Y196.257 E46.12604
G1 X4.099 Y195.555 E46.15163
G1 X3.859 Y194.824 E46.17722
G1 X3.696 Y194.073 E46.20278
G1 X3.612 Y193.308 E46.22838
G1 X3.6 Y192.883 E46.24252
G1 X3.6 Y42.117 E51.25702
G1 X3.64 Y41.349 E51.2826
G1 X3.759 Y40.589 E51.30818
G1 X3.957 Y39.846 E51.33376
G1 X4.231 Y39.127 E51.35935
G1 X4.578 Y38.441 E51.38492
G1 X4.994 Y37.794 E51.4105
G1 X5.475 Y37.194 E51.43608
G1 X5.767 Y36.884 E51.45024
G1 X5.884 Y36.767 E51.45575
G1 X6.456 Y36.253 E51.48132
G1 X7.078 Y35.8 E51.50692
G1 X7.743 Y35.414 E51.53249
G1 X8.445 Y35.099 E51.55808
G1 X9.176 Y34.859 E51.58367
G0 F6000 X9.38 Y35.219
G1 F1200 X10.113 Y35.072 E51.60854
G1 X11.117 Y35 E51.64202
G1 X223.883 Y35 E58.71864
G1 X224.63 Y35.04 E58.74352
G1 X225.368 Y35.159 E58.76839
G1 X226.09 Y35.357 E58.79329
G1 X226.786 Y35.63 E58.81815
G1 X227.449 Y35.977 E58.84304
G1 X228.072 Y36.392 E58.86794
G1 X228.833 Y37.05 E58.9014
G1 X228.95 Y37.167 E58.9069
G1 X229.45 Y37.724 E58.9318
G1 X229.887 Y38.33 E58.95665
G1 X230.258 Y38.98 E58.98154
G1 X230.557 Y39.666 E59.00643
G1 X230.781 Y40.38 E59.03132
G1 X230.928 Y41.113 E59.05619
G1 X231 Y42.117 E59.08966
G1 X231 Y192.883 E64.10416
G1 X230.96 Y193.63 E64.12904
G1 X230.841 Y194.368 E64.15391
G1 X230.643 Y195.09 E64.17881
G1 X230.37 Y195.786 E64.20367
G1 X230.023 Y196.449 E64.22856
G1 X229.608 Y197.072 E64.25346
G1 X228.95 Y197.833 E64.28692
G1 X228.833 Y197.95 E64.29242
G1 X228.276 Y198.45 E64.31732
G1 X227.67 Y198.887 E64.34217
G1 X227.02 Y199.258 E64.36706
G1 X226.334 Y199.557 E64.39195
G1 X225.62 Y199.781 E64.41684
G1 X224.887 Y199.928 E64.4417
G1 X223.883 Y200 E64.47518
G1 X11.117 Y200 E71.55181
G1 X10.37 Y199.96 E71.57669
G1 X9.632 Y199.841 E71.60155
G1 X8.91 Y199.643 E71.62645
G1 X8.214 Y199.37 E71.65132
G1 X7.551 Y199.023 E71.67621
G1 X6.928 Y198.608 E71.70111
G1 X6.167 Y197.95 E71.73457
G1 X6.05 Y197.833 E71.74007
G1 X5.55 Y197.276 E71.76496
G1 X5.113 Y196.67 E71.78981
G1 X4.742 Y196.02 E71.81471
G1 X4.443 Y195.334 E71.8396
G1 X4.219 Y194.62 E71.86449
G1 X4.072 Y193.887 E71.88935
G1 X4 Y192.883 E71.92283
G1 X4 Y42.117 E76.93733
G1 X4.04 Y41.37 E76.96221
G1 X4.159 Y40.632 E76.98707
G1 X4.357 Y39.91 E77.01197
G1 X4.63 Y39.214 E77.03684
G1 X4.977 Y38.551 E77.06173
G1 X5.392 Y37.928 E77.08662
G1 X6.05 Y37.167 E77.12009
G1 X6.167 Y37.05 E77.12559
G1 X6.724 Y36.55 E77.15048
G1 X7.33 Y36.113 E77.17533
G1 X7.98 Y35.742 E77.20023
G1 X8.666 Y35.443 E77.22512
G1 X9.38 Y35.219 E77.25
G0 F6000 X9.581 Y35.581
G1 F1200 X10.296 Y35.451 E77.27418
G1 X11.117 Y35.4 E77.30153
G1 X223.883 Y35.4 E84.37816
G1 X224.608 Y35.44 E84.40231
G1 X225.325 Y35.559 E84.42648
G1 X226.024 Y35.757 E84.45065
G1 X226.697 Y36.03 E84.4748
G1 X227.336 Y36.375 E84.49896
G1 X227.933 Y36.789 E84.52312
G1 X228.55 Y37.333 E84.55048
G1 X228.667 Y37.45 E84.55598
G1 X229.151 Y37.991 E84.58013
G1 X229.574 Y38.582 E84.6043
G1 X229.928 Y39.216 E84.62845
G1 X230.211 Y39.885 E84.65261
G1 X230.419 Y40.581 E84.67677
G1 X230.549 Y41.296 E84.70094
G1 X230.6 Y42.117 E84.7283
G1 X230.6 Y192.883 E89.7428
G1 X230.56 Y193.608 E89.76695
G1 X230.441 Y194.325 E89.79112
G1 X230.243 Y195.024 E89.81529
G1 X229.97 Y195.697 E89.83944
G1 X229.625 Y196.336 E89.86359
G1 X229.211 Y196.933 E89.88776
G1 X228.667 Y197.55 E89.91512
G1 X228.55 Y197.667 E89.92062
G1 X228.009 Y198.151 E89.94476
G1 X227.418 Y198.574 E89.96894
G1 X226.784 Y198.928 E89.99309
G1 X226.115 Y199.211 E90.01725
G1 X225.419 Y199.419 E90.04141
G1 X224.704 Y199.549 E90.06558
G1 X223.883 Y199.6 E90.09294
G1 X11.117 Y199.6 E97.16956
G1 X10.392 Y199.56 E97.19372
G1 X9.675 Y199.441 E97.21789
G1 X8.976 Y199.243 E97.24205
G1 X8.303 Y198.97 E97.26621
G1 X7.664 Y198.625 E97.29036
G1 X7.067 Y198.211 E97.31452
G1 X6.45 Y197.667 E97.34188
G1 X6.333 Y197.55 E97.34739
G1 X5.849 Y197.009 E97.37153
G1 X5.426 Y196.418 E97.3957
G1 X5.072 Y195.784 E97.41985
G1 X4.789 Y195.115 E97.44401
G1 X4.581 Y194.419 E97.46818
G1 X4.451 Y193.704 E97.49235
G1 X4.4 Y192.883 E97.51971
G1 X4.4 Y42.117 E102.5342
G1 X4.44 Y41.392 E102.55835
G1 X4.559 Y40.675 E102.58253
G1 X4.757 Y39.976 E102.60669
G1 X5.03 Y39.303 E102.63085
G1 X5.375 Y38.664 E102.655
G1 X5.789 Y38.067 E102.67916
G1 X6.333 Y37.45 E102.70652
G1 X6.45 Y37.333 E102.71202
G1 X6.991 Y36.849 E102.73617
G1 X7.582 Y36.426 E102.76034
G1 X8.216 Y36.072 E102.78449
G1 X8.885 Y35.789 E102.80865
G1 X9.581 Y35.581 E102.83281
G0 F6000 X9.102 Y36.136
G1 F1200 X9.78 Y35.946 E102.85623
G1 X10.475 Y35.833 E102.87965
G1 X11.117 Y35.8 E102.90103
G1 X223.883 Y35.8 E109.97766
G1 X224.586 Y35.84 E110.00108
G1 X225.28 Y35.959 E110.0245
G1 X225.955 Y36.157 E110.04789
G1 X226.604 Y36.429 E110.0713
G1 X227.218 Y36.774 E110.09472
G1 X227.789 Y37.185 E110.11812
G1 X228.267 Y37.616 E110.13953
G1 X228.384 Y37.733 E110.14503
G1 X228.853 Y38.258 E110.16845
G1 X229.259 Y38.833 E110.19186
G1 X229.597 Y39.451 E110.21529
G1 X229.864 Y40.102 E110.23869
G1 X230.054 Y40.78 E110.26211
G1 X230.167 Y41.475 E110.28553
G1 X230.2 Y42.117 E110.30691
G1 X230.2 Y192.883 E115.32141
G1 X230.16 Y193.586 E115.34483
G1 X230.041 Y194.28 E115.36825
G1 X229.843 Y194.955 E115.39164
G1 X229.571 Y195.604 E115.41505
G1 X229.226 Y196.218 E115.43847
G1 X228.815 Y196.789 E115.46187
G1 X228.384 Y197.267 E115.48328
G1 X228.267 Y197.384 E115.48878
G1 X227.742 Y197.853 E115.5122
G1 X227.167 Y198.259 E115.53561
G1 X226.549 Y198.597 E115.55904
G1 X225.898 Y198.864 E115.58244
G1 X225.22 Y199.054 E115.60586
G1 X224.525 Y199.167 E115.62928
G1 X223.883 Y199.2 E115.65066
G1 X11.117 Y199.2 E122.72729
G1 X10.414 Y199.16 E122.75071
G1 X9.72 Y199.041 E122.77412
G1 X9.045 Y198.843 E122.79752
G1 X8.396 Y198.571 E122.82093
G1 X7.782 Y198.226 E122.84435
G1 X7.211 Y197.815 E122.86775
G1 X6.733 Y197.384 E122.88916
G1 X6.616 Y197.267 E122.89466
G1 X6.147 Y196.742 E122.91808
G1 X5.741 Y196.167 E122.94149
G1 X5.403 Y195.549 E122.96491
G1 X5.136 Y194.898 E122.98832
G1 X4.946 Y194.22 E123.01174
G1 X4.833 Y193.525 E123.03516
G1 X4.8 Y192.883 E123.05654
G1 X4.8 Y42.117 E128.07103
G1 X4.84 Y41.414 E128.09445
G1 X4.959 Y40.72 E128.11787
G1 X5.157 Y40.045 E128.14127
G1 X5.429 Y39.396 E128.16468
G1 X5.774 Y38.782 E128.1881
G1 X6.185 Y38.211 E128.2115
G1 X6.616 Y37.733 E128.23291
G1 X6.733 Y37.616 E128.23841
G1 X7.258 Y37.147 E128.26182
G1 X7.833 Y36.741 E128.28524
G1 X8.451 Y36.403 E128.30866
G1 X9.102 Y36.136 E128.33207
G0 F6000 X9.317 Y36.486
G1 F1200 X9.976 Y36.313 E128.35473
G1 X10.65 Y36.219 E128.37736
G1 X11.117 Y36.2 E128.39291
G1 X223.883 Y36.2 E135.46953
G1 X224.563 Y36.24 E135.49219
G1 X225.233 Y36.359 E135.51482
G1 X225.885 Y36.556 E135.53748
G1 X226.509 Y36.828 E135.56012
G1 X227.097 Y37.172 E135.58277
G1 X227.641 Y37.582 E135.60543
G1 X227.984 Y37.899 E135.62097
G1 X228.101 Y38.016 E135.62647
G1 X228.554 Y38.525 E135.64913
G1 X228.943 Y39.083 E135.67176
G1 X229.265 Y39.683 E135.6944
G1 X229.514 Y40.317 E135.71706
G1 X229.687 Y40.976 E135.73972
G1 X229.781 Y41.65 E135.76235
G1 X229.8 Y42.117 E135.7779
G1 X229.8 Y192.883 E140.7924
G1 X229.76 Y193.563 E140.81505
G1 X229.641 Y194.233 E140.83769
G1 X229.444 Y194.885 E140.86034
G1 X229.172 Y195.509 E140.88298
G1 X228.828 Y196.097 E140.90564
G1 X228.418 Y196.641 E140.9283
G1 X228.101 Y196.984 E140.94383
G1 X227.984 Y197.101 E140.94933
G1 X227.475 Y197.554 E140.972
G1 X226.917 Y197.943 E140.99462
G1 X226.317 Y198.265 E141.01727
G1 X225.683 Y198.514 E141.03992
G1 X225.024 Y198.687 E141.06258
G1 X224.35 Y198.781 E141.08522
G1 X223.883 Y198.8 E141.10076
G1 X11.117 Y198.8 E148.17739
G1 X10.437 Y198.76 E148.20005
G1 X9.767 Y198.641 E148.22268
G1 X9.115 Y198.444 E148.24533
G1 X8.491 Y198.172 E148.26797
G1 X7.903 Y197.828 E148.29063
G1 X7.359 Y197.418 E148.31329
G1 X7.016 Y197.101 E148.32882
G1 X6.899 Y196.984 E148.33433
G1 X6.446 Y196.475 E148.35699
G1 X6.057 Y195.917 E148.37961
G1 X5.735 Y195.317 E148.40226
G1 X5.486 Y194.683 E148.42492
G1 X5.313 Y194.024 E148.44758
G1 X5.219 Y193.35 E148.47021
G1 X5.2 Y192.883 E148.48576
G1 X5.2 Y42.117 E153.50025
G1 X5.24 Y41.437 E153.52291
G1 X5.359 Y40.767 E153.54554
G1 X5.556 Y40.115 E153.5682
G1 X5.828 Y39.491 E153.59084
G1 X6.172 Y38.903 E153.61349
G1 X6.582 Y38.359 E153.63615
G1 X6.899 Y38.016 E153.65169
G1 X7.016 Y37.899 E153.65719
G1 X7.525 Y37.446 E153.67985
G1 X8.083 Y37.057 E153.70248
G1 X8.683 Y36.735 E153.72512
G1 X9.317 Y36.486 E153.74778
G0 F6000 X9.529 Y36.839
G1 F1200 X10.168 Y36.684 E153.76965
G1 X11.117 Y36.6 E153.80134
G1 X223.883 Y36.6 E160.87796
G1 X224.539 Y36.64 E160.89982
G1 X225.185 Y36.759 E160.92167
G1 X225.812 Y36.956 E160.94353
G1 X226.41 Y37.228 E160.96538
G1 X226.971 Y37.57 E160.98723
G1 X227.701 Y38.182 E161.01891
G1 X227.818 Y38.299 E161.02442
G1 X228.254 Y38.791 E161.04628
G1 X228.626 Y39.332 E161.06812
G1 X228.93 Y39.914 E161.08996
G1 X229.161 Y40.529 E161.11181
G1 X229.316 Y41.168 E161.13368
G1 X229.4 Y42.117 E161.16537
G1 X229.4 Y192.883 E166.17986
G1 X229.36 Y193.539 E166.20172
G1 X229.241 Y194.185 E166.22357
G1 X229.044 Y194.812 E166.24543
G1 X228.772 Y195.41 E166.26728
G1 X228.43 Y195.971 E166.28913
G1 X227.818 Y196.701 E166.32082
G1 X227.701 Y196.818 E166.32632
G1 X227.209 Y197.254 E166.34818
G1 X226.668 Y197.626 E166.37002
G1 X226.086 Y197.93 E166.39186
G1 X225.471 Y198.161 E166.41371
G1 X224.832 Y198.316 E166.43558
G1 X223.883 Y198.4 E166.46727
G1 X11.117 Y198.4 E173.54389
G1 X10.461 Y198.36 E173.56575
G1 X9.815 Y198.241 E173.5876
G1 X9.188 Y198.044 E173.60946
G1 X8.59 Y197.772 E173.63131
G1 X8.029 Y197.43 E173.65316
G1 X7.299 Y196.818 E173.68485
G1 X7.182 Y196.701 E173.69035
G1 X6.746 Y196.209 E173.71221
G1 X6.374 Y195.668 E173.73405
G1 X6.07 Y195.086 E173.75589
G1 X5.839 Y194.471 E173.77774
G1 X5.684 Y193.832 E173.79961
G1 X5.6 Y192.883 E173.8313
G1 X5.6 Y42.117 E178.8458
G1 X5.64 Y41.461 E178.86765
G1 X5.759 Y40.815 E178.8895
G1 X5.956 Y40.188 E178.91136
G1 X6.228 Y39.59 E178.93321
G1 X6.57 Y39.029 E178.95506
G1 X7.182 Y38.299 E178.98675
G1 X7.299 Y38.182 E178.99225
G1 X7.791 Y37.746 E179.01412
G1 X8.332 Y37.374 E179.03595
G1 X8.914 Y37.07 E179.05779
G1 X9.529 Y36.839 E179.07964
G0 F6000 X9.738 Y37.194
G1 F1200 X10.356 Y37.058 E179.10069
G1 X11.117 Y37 E179.12607
G1 X223.883 Y37 E186.2027
G1 X224.514 Y37.04 E186.22373
G1 X225.135 Y37.159 E186.24476
G1 X225.735 Y37.356 E186.26576
G1 X226.307 Y37.627 E186.28682
G1 X226.839 Y37.967 E186.30781
G1 X227.419 Y38.464 E186.33322
G1 X227.536 Y38.581 E186.33872
G1 X227.953 Y39.056 E186.35975
G1 X228.308 Y39.579 E186.38077
G1 X228.594 Y40.143 E186.4018
G1 X228.806 Y40.738 E186.42281
G1 X228.942 Y41.356 E186.44386
G1 X229 Y42.117 E186.46924
G1 X229 Y192.883 E191.48374
G1 X228.96 Y193.514 E191.50477
G1 X228.841 Y194.135 E191.5258
G1 X228.644 Y194.735 E191.5468
G1 X228.373 Y195.307 E191.56785
G1 X228.033 Y195.839 E191.58885
G1 X227.536 Y196.419 E191.61426
G1 X227.419 Y196.536 E191.61976
G1 X226.944 Y196.953 E191.64078
G1 X226.421 Y197.308 E191.66181
G1 X225.857 Y197.594 E191.68284
G1 X225.262 Y197.806 E191.70385
G1 X224.644 Y197.942 E191.7249
G1 X223.883 Y198 E191.75028
G1 X11.117 Y198 E198.82691
G1 X10.486 Y197.96 E198.84794
G1 X9.865 Y197.841 E198.86897
G1 X9.265 Y197.644 E198.88997
G1 X8.693 Y197.373 E198.91102
G1 X8.161 Y197.033 E198.93202
G1 X7.581 Y196.536 E198.95743
G1 X7.464 Y196.419 E198.96293
G1 X7.047 Y195.944 E198.98395
G1 X6.692 Y195.421 E199.00498
G1 X6.406 Y194.857 E199.02601
G1 X6.194 Y194.262 E199.04702
G1 X6.058 Y193.644 E199.06806
G1 X6 Y192.883 E199.09345
G1 X6 Y42.117 E204.10795
G1 X6.04 Y41.486 E204.12897
G1 X6.159 Y40.865 E204.15001
G1 X6.356 Y40.265 E204.17101
G1 X6.627 Y39.693 E204.19206
G1 X6.967 Y39.161 E204.21306
G1 X7.464 Y38.581 E204.23847
